icons/pen-tool.svg

<svg width="24" height="24" viewBox="0 0 24 24" fill="none" xmlns="http://www.w3.org/2000/svg">
<path fill-rule="evenodd" clip-rule="evenodd" d="M11.5 10.12C11.3093 10.2301 11.1603 10.4 11.0761 10.6033C10.9919 10.8067 10.9771 11.0322 11.0341 11.2448C11.091 11.4575 11.2166 11.6454 11.3912 11.7794C11.5659 11.9134 11.7798 11.986 12 11.986C12.2201 11.986 12.4341 11.9134 12.6087 11.7794C12.7834 11.6454 12.9089 11.4575 12.9659 11.2448C13.0229 11.0322 13.0081 10.8067 12.9239 10.6033C12.8396 10.4 12.6906 10.2301 12.5 10.12V3.016C12.54 2.371 12.813 2.039 13.318 2.018C13.823 1.997 14.176 2.169 14.377 2.535L17.321 9.993C17.768 11.023 17.995 11.694 18.001 12.004C18.006 12.314 17.938 12.627 17.796 12.943L15.554 16.883C15.374 17.185 15.158 17.445 14.907 17.661C14.655 17.878 14.275 17.986 13.766 17.986H10.234C9.78998 17.986 9.42398 17.878 9.13498 17.661C8.85409 17.4523 8.61978 17.1873 8.44698 16.883L6.21898 12.95C6.073 12.6583 5.99797 12.3362 5.99998 12.01C6.00598 11.7 6.23798 11.026 6.69698 9.986L9.62398 2.536C9.79298 2.18 10.138 2 10.658 2C11.179 2 11.46 2.34 11.5 3.02V10.12ZM9.99998 19.986H14C14.667 19.986 15 20.319 15 20.986C15 21.653 14.667 21.986 14 21.986H9.99998C9.33398 21.986 8.99998 21.653 8.99998 20.986C8.99998 20.319 9.33398 19.986 9.99998 19.986Z" fill="#3A3A47"/>
</svg>

<svg xmlns="http://www.w3.org/2000/svg" width="24" height="24" viewBox="0 0 24 24">
    <path fill="#3A3A47" fill-rule="evenodd" d="M14 19.986c.667 0 1 .333 1 1s-.333 1-1 1h-4c-.666 0-1-.333-1-1s.334-1 1-1h4zM10.658 2c.521 0 .802.34.842 1.02v7.1a1 1 0 1 0 1.001 0V3.016c.04-.645.312-.977.817-.998.505-.021.858.151 1.059.517l2.944 7.458c.447 1.03.674 1.701.68 2.011.005.31-.063.623-.205.939l-2.242 3.94c-.18.302-.396.562-.647.778-.252.217-.632.325-1.141.325h-3.532c-.444 0-.81-.108-1.099-.325a2.519 2.519 0 0 1-.688-.778L6.219 12.95A2.072 2.072 0 0 1 6 12.01c.006-.31.238-.984.697-2.024l2.927-7.45C9.793 2.18 10.138 2 10.658 2z"/>
</svg>
